X:318
%%etbk:tnset id:97,pos:5,rep:3x,ant:
%%etbk:tnset id:259,pos:3,rep:2x,ant:
%%etbk:wsite http://www.thesession.org/tunes/display/19
%%etbk:pldat 2016-06-23T18:59,2016-06-22T16:31,2016-06-20T17:56,2016-05-04T16:05,2016-03-11T17:02,2016-03-09T15:36,2016-03-07T18:47,2016-03-05T13:24,2016-02-16T17:17,2015-11-03T15:51,2015-10-29T18:45,2015-10-27T15:40,2015-10-24T13:51,2015-10-20T17:15,2015-10-06T15:08,2015-06-24T19:01,2015-05-28T18:19,2015-03-12T18:38,2015-03-09T17:43,2015-02-16T19:24,2015-01-27T16:20,2014-11-05T18:16,2014-11-02T15:08,2014-10-29T16:15,2014-08-21T18:31,2014-08-19T18:09,2014-06-25T15:27,2014-06-13T15:19,2014-06-04T15:20,2014-03-04T18:19,2014-03-02T16:17,2014-02-26T16:34,2013-10-30T15:30,2013-10-28T18:30,2013-10-24T18:29,2013-10-18T15:16,2013-10-14T18:51,2013-10-09T16:28
T: Connaughtman's Rambles, The
Z: Piano Box Version by Martin Fleischmann
H: Created 2013-02-19 /  Last Modified 2013-02-19
M: 6/8
L: 1/8
R: jig
K: Dmaj
|: "D"!2!F!1!AA !4!d!1!AA | {d}!2!BAB !4!d!1!A!3!G | !2!F!1!AA !3!d!5!fe | "A"!3!d!2!BB {d}!2!B!1!A!3!G |
"D"!2!F!1!AA !4!d!1!AA | {d}!2!BA!2!B !1!def | "A"!4!gfe !1!dfe |1 "bm"!1!d!2!BB !2!B2!1!A :|2 "bm"!1!d!2!BB !1!B3 ||
|: "bm"!2!f!5!bb !2!f!4!aa | !3!fed !1!de!3!f | !2!f!5!bb !2!f!4!aa | "f#m"!3!fed !2!e2!1!e |
"bm"!2!f!5!bb !2!f!4!aa | !3!fed !1!def | "f#m"!4!gfe !1!dfe |1 "bm"!1!d!2!BB !1!B3:|2 "bm"!1!d!2!BB !2!B2!1!A||


